X:1
T:Ho, Every One That Thirsteth
T:Ho, Every One That Thirsteth
T:Philip Paul Bliss (1838-1876)
T:Anonymous
T:Public Domain Courtesy of the Cyber Hymnal™
T:Public Domain Courtesy of the Cyber Hymnal™
C:Philip Paul Bliss (1838-1876)
Z:Public Domain
Z:Courtesy of the Cyber Hymnal™
%%score ( 1 2 ) ( 3 4 )
L:1/8
Q:1/4=105
M:6/8
K:Ab
V:1 treble 
V:2 treble 
V:3 bass 
V:4 bass 
V:1
"^Duet" [CE] | [Ec]2 [Ec] [DB]2 [CA] | [CE]3 [A,C]2 [CE] | [CA]2 [CA] [DB]2 [=D=B] | %4
w: 1.~Be-|side the well at|noon- time, I|hear a sad one|
w: 2.~Be-|side the pool Be-|thes- da, I|hear a mourn- ful|
w: 3.~While|seat- ed on the|hill- side, The|hun- gry ones were|
 ([Ec]3 [DB]2) [Fd] | [Ec]2 [Ec] [DB]2 [CA] | [CE]3 [A,C]2 [CE] | [CA]2 [CA] [Ec]2 [DB] | %8
w: say: * “I|want that liv- ing|wa- ter, Give|me to drink, I|
w: cry: * “No|help, no hope is|of- fered To|one so weak as|
w: fed * By|Him who said most|tru- ly: “I|am the liv- ing|
 [CA]3- [CA]2 A | A2 G F2 C | F3 F2 [=EG] | [FA]2 [=EG] [FA]2 [Ac] | [G-B]3 !fermata![Ge]2 [Fd] | %13
w: pray; * The|well is deep, O|pil- grim, But|deep- er is my|need, * I|
w: I”; * Oh,|cease thy sad com-|plain- ing, The|Gos- pel gives thee|cheer; * Come|
w: bread”; * ’Tis|He, the heav- enly|man- na, Who|doth our souls re-|store; * By|
 [Ec]2 [Ec] [DB]2 [CA] | [CE]3 [A,C]2 [CE] | [CA]2 [CA] [Ec]2 [DB] | [CA]3- [CA]2 || %17
w: thirst for life e-|ter- nal, The|‘Gift of God’ in-|deed.” *|
w: to the house of|mer- cy, For|Christ the pool is|here. *|
w: faith of Him par-|tak- ing, We|live for- ev- er|more. *|
"^Refrain" [Ae] | [Ae]2 [Ac] [Ae]2 [Ac] | [Ac]3 [GB]2 [Gc] | A2 A [AB]2 [Ac] | ([GB]3 Bc)[Ed] | %22
w: Ho,|ev- ery one that|thirst- eth, The|liv- ing wa- ter|buy! * * Ye|
w: ’Tis|He, the great Phy-|si- cian, Can|cure the sin- sick|soul; * * “Rise|
w: Ho,|ev- ery one that|thirst- eth, The|liv- ing wa- ter|buy! * * Ye|
 [Ec]2 [Ec] [DB]2 [CA] | [Fd]3 ([Fd][Ge])[Af] | [Ae]2 [Ec] [Ec]2 [DB] | [CA]3- [CA]2 |] %26
w: bless- èd ones that|hun- ger, * Take,|eat and ne- ver|die. *|
w: up and walk,” He|bids thee, * “Thy|faith has made thee|whole.” *|
w: bless- èd ones that|hun- ger, * Take,|eat and ne- ver|die. *|
V:2
 x | x6 | x6 | x6 | x6 | x6 | x6 | x6 | x5 A | A2 G F2 C | F3 F2 x | x6 | x6 | x6 | x6 | x6 | x5 || %17
 x | x6 | x6 | A2 A x3 | x3 G2 x | x6 | x6 | x6 | x5 |] %26
V:3
 z | z6 | z6 | z6 | z6 | z6 | z6 | z6 | z6 | z6 | z6 | z6 | z6 | z6 | z6 | z6 | z3 z2 || [A,C] | %18
 [CE]2 [A,E] [CE]2 [A,E] | [E,E]3 [E,E]2 [E,D] | [F,C]2 [F,C] [B,,=D]2 [B,,D] | %21
 [E,E]3- [E,E]2 [E,G,] | A,2 A, [E,G,]2 [F,A,] | [D,A,]3 [D,A,]2 [D,A,] | %24
 [E,C]2 [E,A,] [E,G,]2 [E,G,] | [A,,A,]3- [A,,A,]2 |] %26
V:4
 x | x6 | x6 | x6 | x6 | x6 | x6 | x6 | x6 | x6 | x6 | x6 | x6 | x6 | x6 | x6 | x5 || x | x6 | x6 | %20
 x6 | x6 | A,2 A, x3 | x6 | x6 | x5 |] %26

